X:389
T:Låling,
T:Polska efter Daniel Danielsson
R:Polska
Z:Jonas Brunskog, 25/8 2008
O:Åmål, Dalsland
S:efter Daniel Danielsson
B:Svenska Låtar Dalsland nr 23
M:3/4
L:1/8
K:D
|:AA dd ff|(3a^ga ba (3fdf|ag (3efg (3fec|(3def (3dec A2|
AA dd ff|(3a^ga ba (3fdf|ag (3efg (3fec|(3def d2 z2:|
|:ag (3efg (3fec|(3def (3dec A2|a2 (3egf df|(3gfg a>g (3fdf|
ag (3efg (3fec|(3def (3dec A2|ag (3efg (3fec|(3def d2 z2:|
(:musicend:)

(:music:)
